flaticon/fitness/weight-1.svg

<svg xmlns="http://www.w3.org/2000/svg" width="32" height="32" viewBox="0 0 24 24">
    <path d="M 22.019531 18.679688 L 21.941406 17.921875 C 21.339844 13.679688 21.339844 9.441406 21.941406 5.238281 C 22.261719 2.921875 20.261719 2.238281 19.578125 2 C 19.421875 1.960938 16.140625 0.800781 14.699219 0.398438 C 13.859375 0.160156 12.941406 0.0390625 12.019531 0 C 12.019531 0 12.019531 0 11.980469 0 L 11.941406 0 C 11.019531 0 10.140625 0.160156 9.261719 0.398438 C 7.820312 0.800781 4.5 1.960938 4.378906 2 C 3.261719 2.398438 1.820312 3.160156 2.058594 5.199219 C 2.5 9.398438 2.5 13.800781 2.058594 17.921875 L 1.980469 18.679688 C 1.859375 20.039062 2.300781 21.398438 3.21875 22.398438 C 4.140625 23.441406 5.460938 24 6.820312 24 L 17.21875 24 C 18.578125 24 19.859375 23.441406 20.78125 22.398438 C 21.699219 21.398438 22.140625 20.039062 22.019531 18.679688 Z M 20.179688 21.878906 C 19.421875 22.71875 18.300781 23.199219 17.179688 23.199219 L 6.78125 23.199219 C 5.660156 23.199219 4.539062 22.71875 3.78125 21.878906 C 3.019531 21.039062 2.621094 19.878906 2.738281 18.761719 L 2.820312 18.078125 C 3.261719 13.921875 3.261719 9.441406 2.820312 5.199219 C 2.699219 3.960938 3.21875 3.28125 4.660156 2.800781 C 4.699219 2.800781 8.101562 1.601562 9.5 1.199219 C 10.300781 0.960938 11.140625 0.839844 11.980469 0.800781 C 12.859375 0.839844 13.699219 0.960938 14.460938 1.160156 C 15.898438 1.558594 19.261719 2.761719 19.300781 2.761719 C 20.738281 3.238281 21.300781 3.960938 21.140625 5.121094 C 20.539062 9.359375 20.539062 13.71875 21.140625 18 L 21.21875 18.761719 C 21.339844 19.921875 20.941406 21.039062 20.179688 21.878906 Z M 20.179688 21.878906"/>
    <path d="M 16.78125 1.078125 C 15.898438 0.800781 15.179688 0.558594 14.738281 0.441406 C 13.898438 0.199219 12.980469 0.078125 12.058594 0.0390625 L 11.980469 0.0390625 C 11.058594 0.0390625 10.179688 0.199219 9.300781 0.441406 C 8.859375 0.558594 8.179688 0.800781 7.261719 1.078125 C 7.058594 1.121094 6.941406 1.320312 6.980469 1.519531 L 7.019531 1.71875 C 7.140625 2.398438 7.140625 3.199219 7.140625 3.921875 L 7.140625 4 C 7.140625 5.320312 8.261719 6.398438 9.660156 6.398438 L 14.378906 6.398438 C 15.699219 6.398438 16.738281 5.359375 16.738281 4 C 16.738281 3.238281 16.898438 2.398438 17.019531 1.71875 L 17.058594 1.519531 C 17.101562 1.320312 16.980469 1.160156 16.78125 1.078125 Z M 15.941406 4 C 15.941406 4.921875 15.261719 5.601562 14.378906 5.601562 L 9.660156 5.601562 C 8.738281 5.601562 7.941406 4.878906 7.941406 4 L 7.941406 3.921875 C 7.941406 3.199219 7.941406 2.441406 7.820312 1.71875 C 8.539062 1.480469 9.101562 1.28125 9.5 1.199219 C 10.300781 0.960938 11.140625 0.839844 12.019531 0.839844 C 12.898438 0.839844 13.738281 0.960938 14.539062 1.199219 C 14.898438 1.320312 15.5 1.480469 16.21875 1.71875 C 16.101562 2.398438 15.941406 3.199219 15.941406 4 Z M 15.941406 4"/>
    <path d="M14.339844 2L9.539062 2C9.300781 2 9.140625 2.160156 9.140625 2.398438L9.140625 4.398438C9.140625 4.640625 9.300781 4.800781 9.539062 4.800781L14.339844 4.800781C14.539062 4.800781 14.738281 4.601562 14.738281 4.398438L14.738281 2.398438C14.738281 2.160156 14.578125 2 14.339844 2zM13.941406 4L9.941406 4 9.941406 2.800781 13.941406 2.800781zM9.539062 9.199219L5.539062 9.199219C5.300781 9.199219 5.140625 9.359375 5.140625 9.601562 5.140625 9.839844 5.300781 10 5.539062 10L9.539062 10C9.738281 10 9.941406 9.839844 9.941406 9.601562 9.941406 9.359375 9.78125 9.199219 9.539062 9.199219zM8.738281 10.800781L5.539062 10.800781C5.300781 10.800781 5.140625 10.960938 5.140625 11.199219 5.140625 11.441406 5.300781 11.601562 5.539062 11.601562L8.738281 11.601562C8.941406 11.601562 9.140625 11.441406 9.140625 11.199219 9.140625 10.960938 8.980469 10.800781 8.738281 10.800781zM7.941406 12.398438L5.539062 12.398438C5.300781 12.398438 5.140625 12.558594 5.140625 12.800781 5.140625 13.039062 5.300781 13.199219 5.539062 13.199219L7.941406 13.199219C8.140625 13.199219 8.339844 13.039062 8.339844 12.800781 8.339844 12.558594 8.179688 12.398438 7.941406 12.398438zM7.539062 14L5.539062 14C5.300781 14 5.140625 14.160156 5.140625 14.398438 5.140625 14.640625 5.300781 14.800781 5.539062 14.800781L7.539062 14.800781C7.738281 14.800781 7.941406 14.640625 7.941406 14.398438 7.941406 14.160156 7.78125 14 7.539062 14zM18.339844 9.199219L14.339844 9.199219C14.101562 9.199219 13.941406 9.359375 13.941406 9.601562 13.941406 9.839844 14.101562 10 14.339844 10L18.339844 10C18.539062 10 18.738281 9.839844 18.738281 9.601562 18.738281 9.359375 18.578125 9.199219 18.339844 9.199219zM18.339844 10.800781L15.140625 10.800781C14.898438 10.800781 14.738281 10.960938 14.738281 11.199219 14.738281 11.441406 14.898438 11.601562 15.140625 11.601562L18.339844 11.601562C18.539062 11.601562 18.738281 11.441406 18.738281 11.199219 18.738281 10.960938 18.578125 10.800781 18.339844 10.800781zM18.339844 12.398438L15.941406 12.398438C15.699219 12.398438 15.539062 12.558594 15.539062 12.800781 15.539062 13.039062 15.699219 13.199219 15.941406 13.199219L18.339844 13.199219C18.539062 13.199219 18.738281 13.039062 18.738281 12.800781 18.738281 12.558594 18.578125 12.398438 18.339844 12.398438zM18.339844 14L16.339844 14C16.101562 14 15.941406 14.160156 15.941406 14.398438 15.941406 14.640625 16.101562 14.800781 16.339844 14.800781L18.339844 14.800781C18.539062 14.800781 18.738281 14.640625 18.738281 14.398438 18.738281 14.160156 18.578125 14 18.339844 14zM7.941406 15.601562L5.539062 15.601562C5.300781 15.601562 5.140625 15.761719 5.140625 16 5.140625 16.238281 5.300781 16.398438 5.539062 16.398438L7.941406 16.398438C8.140625 16.398438 8.339844 16.238281 8.339844 16 8.339844 15.761719 8.179688 15.601562 7.941406 15.601562zM8.738281 17.199219L5.539062 17.199219C5.300781 17.199219 5.140625 17.359375 5.140625 17.601562 5.140625 17.839844 5.300781 18 5.539062 18L8.738281 18C8.941406 18 9.140625 17.839844 9.140625 17.601562 9.140625 17.359375 8.980469 17.199219 8.738281 17.199219zM9.539062 18.800781L5.539062 18.800781C5.300781 18.800781 5.140625 18.960938 5.140625 19.199219 5.140625 19.441406 5.300781 19.601562 5.539062 19.601562L9.539062 19.601562C9.738281 19.601562 9.941406 19.441406 9.941406 19.199219 9.941406 18.960938 9.78125 18.800781 9.539062 18.800781zM18.339844 15.601562L15.941406 15.601562C15.699219 15.601562 15.539062 15.761719 15.539062 16 15.539062 16.238281 15.699219 16.398438 15.941406 16.398438L18.339844 16.398438C18.539062 16.398438 18.738281 16.238281 18.738281 16 18.738281 15.761719 18.578125 15.601562 18.339844 15.601562zM18.339844 17.199219L15.140625 17.199219C14.898438 17.199219 14.738281 17.359375 14.738281 17.601562 14.738281 17.839844 14.898438 18 15.140625 18L18.339844 18C18.539062 18 18.738281 17.839844 18.738281 17.601562 18.738281 17.359375 18.578125 17.199219 18.339844 17.199219zM18.339844 18.800781L14.339844 18.800781C14.101562 18.800781 13.941406 18.960938 13.941406 19.199219 13.941406 19.441406 14.101562 19.601562 14.339844 19.601562L18.339844 19.601562C18.539062 19.601562 18.738281 19.441406 18.738281 19.199219 18.738281 18.960938 18.578125 18.800781 18.339844 18.800781zM18.339844 18.800781"/>
</svg>

<svg xmlns="http://www.w3.org/2000/svg" width="32" height="32" viewBox="0 0 24 24">
    <path d="M22.02 18.68l-.079-.758a44.796 44.796 0 0 1 0-12.684c.32-2.316-1.68-3-2.363-3.238C19.422 1.96 16.141.8 14.7.398 13.86.16 12.941.04 12.02 0h-.078c-.921 0-1.8.16-2.68.398C7.822.801 4.5 1.961 4.38 2c-1.117.398-2.559 1.16-2.32 3.2.441 4.198.441 8.6 0 12.722l-.079.758a4.864 4.864 0 0 0 1.239 3.718A4.792 4.792 0 0 0 6.82 24H17.22a4.71 4.71 0 0 0 3.562-1.602c.918-1 1.36-2.359 1.239-3.718zm-1.84 3.199a4.085 4.085 0 0 1-3 1.32H6.78a4.085 4.085 0 0 1-3-1.32c-.761-.84-1.16-2-1.043-3.117l.082-.684a62.792 62.792 0 0 0 0-12.879c-.12-1.238.399-1.918 1.84-2.398.04 0 3.442-1.2 4.84-1.602.8-.238 1.64-.36 2.48-.398.88.039 1.72.16 2.48.36 1.438.398 4.802 1.6 4.84 1.6 1.438.477 2 1.2 1.84 2.36a46.18 46.18 0 0 0 0 12.879l.079.762a4.01 4.01 0 0 1-1.04 3.117zm0 0"/>
    <path d="M16.781 1.078c-.883-.277-1.601-.52-2.043-.637C13.898.2 12.98.078 12.058.04h-.078c-.921 0-1.8.16-2.68.402-.44.118-1.12.36-2.038.637a.37.37 0 0 0-.282.442l.04.199c.12.68.12 1.48.12 2.203V4c0 1.32 1.122 2.398 2.52 2.398h4.719c1.32 0 2.36-1.039 2.36-2.398 0-.762.16-1.602.28-2.281l.04-.2c.043-.199-.079-.359-.278-.44zM15.941 4c0 .922-.68 1.602-1.562 1.602H9.66c-.922 0-1.719-.723-1.719-1.602v-.078c0-.723 0-1.48-.12-2.203.718-.239 1.28-.438 1.679-.52.8-.238 1.64-.36 2.52-.36.878 0 1.718.122 2.52.36.358.121.96.281 1.679.52-.117.68-.278 1.48-.278 2.281zm0 0"/>
    <path d="M14.34 2h-4.8c-.24 0-.4.16-.4.398v2c0 .243.16.403.4.403h4.8c.2 0 .398-.2.398-.403v-2c0-.238-.16-.398-.398-.398zm-.399 2h-4V2.8h4zm0 0M9.54 9.2h-4c-.24 0-.4.16-.4.402 0 .238.16.398.4.398h4c.198 0 .401-.16.401-.398 0-.243-.16-.403-.402-.403zm0 0M8.738 10.8H5.54c-.238 0-.398.16-.398.4 0 .241.16.402.398.402h3.2c.202 0 .402-.16.402-.403 0-.238-.16-.398-.403-.398zm0 0M7.941 12.398H5.54c-.238 0-.398.16-.398.403 0 .238.16.398.398.398h2.402a.4.4 0 0 0 .399-.398c0-.242-.16-.403-.399-.403zm0 0M7.54 14h-2c-.24 0-.4.16-.4.398 0 .243.16.403.4.403h2c.198 0 .401-.16.401-.403 0-.238-.16-.398-.402-.398zm0 0M18.34 9.2h-4c-.238 0-.399.16-.399.402 0 .238.16.398.399.398h4a.4.4 0 0 0 .398-.398c0-.243-.16-.403-.398-.403zm0 0M18.34 10.8h-3.2c-.242 0-.402.16-.402.4 0 .241.16.402.403.402h3.199a.4.4 0 0 0 .398-.403c0-.238-.16-.398-.398-.398zm0 0M18.34 12.398H15.94c-.242 0-.402.16-.402.403 0 .238.16.398.402.398h2.399a.4.4 0 0 0 .398-.398c0-.242-.16-.403-.398-.403zm0 0M18.34 14h-2c-.238 0-.399.16-.399.398 0 .243.16.403.399.403h2a.4.4 0 0 0 .398-.403c0-.238-.16-.398-.398-.398zm0 0M7.941 15.602H5.54c-.238 0-.398.16-.398.398 0 .238.16.398.398.398h2.402A.4.4 0 0 0 8.34 16c0-.238-.16-.398-.399-.398zm0 0M8.738 17.2H5.54c-.238 0-.398.16-.398.402 0 .238.16.398.398.398h3.2a.4.4 0 0 0 .402-.398c0-.243-.16-.403-.403-.403zm0 0M9.54 18.8h-4c-.24 0-.4.16-.4.4 0 .241.16.402.4.402h4c.198 0 .401-.16.401-.403 0-.238-.16-.398-.402-.398zm0 0M18.34 15.602H15.94c-.242 0-.402.16-.402.398 0 .238.16.398.402.398h2.399a.4.4 0 0 0 .398-.398c0-.238-.16-.398-.398-.398zm0 0M18.34 17.2h-3.2c-.242 0-.402.16-.402.402 0 .238.16.398.403.398h3.199a.4.4 0 0 0 .398-.398c0-.243-.16-.403-.398-.403zm0 0M18.34 18.8h-4c-.238 0-.399.16-.399.4 0 .241.16.402.399.402h4a.4.4 0 0 0 .398-.403c0-.238-.16-.398-.398-.398zm0 0"/>
</svg>
